www/assets/icons/account_balance.svg

<svg width="24" height="24" viewBox="0 0 24 24" xmlns="http://www.w3.org/2000/svg" fill='currentColor'><path d="M7 10.5H4V17.5H7V10.5Z"/><path d="M13.5 10.5H10.5V17.5H13.5V10.5Z"/><path d="M22 19.5H2V22.5H22V19.5Z"/><path d="M20 10.5H17V17.5H20V10.5Z"/><path d="M12 1.5L2 6.5V8.5H22V6.5L12 1.5Z"/></svg>

<svg xmlns="http://www.w3.org/2000/svg" width="24" height="24" viewBox="0 0 24 24" fill='currentColor'><path d="M7 10.5H4v7h3zm6.5 0h-3v7h3zm8.5 9H2v3h20zm-2-9h-3v7h3zm-8-9-10 5v2h20v-2z"/></svg>
